X:44
T:Capurchin,The. JBs.044
T:Capuchin,The,aka. JBs.044
R:Jig
S:Jas.Blackshaw MS, 1837, N.Shropshire
Z:Tony Weatherall 2006
M:6/8
L:1/8
Q:3/8=120
A:North Shropshire
K:F
f2f fef|g2g gab|a2f fef|gec cde|!
f2f fef|g2g gab|afa geg|f3f3:|!
|:a2a afa|b2b bgb|a2a afa|gec ceg|!
a2a afa|b2b bgb|afa geg|f3f3:|

